X: 1
T: Cory McLennon
R: waltz
Z: John Chambers <jc:trillian.mit.edu>
M: 3/4
L: 1/4
K: Am
gf \
|  "Am"e>dc | "G"dcB | "Am"AG>E | "Em"GEG | "F"ABc | "G"d>cd | "C"e3- | eg>f |
|  "Am"e>dc | "G"dcB | "Am"A>GE | "Em"GEG | "F"ABc | "G"B>AG | "Am"A3- | Aef ||
||  "C"g>ag |    geg | "F"a<ga | "C"ged | e>dc | e<ag | e>dc | "G"BAG |
|  "Am"EAc  | "G"B>AG | "Am"Acd | e>ag| "F"e>dc | "G"BAG | "Am"A3- | A |]
